X: 20943
M: 6/8
L: 1/8
K: F
V: 1 name="3"
c |\
f2c g2c | a2f f2e | dgg gaf | efd cde |\
f2c g2c | a2f f2e | dba gfe | f3 f2 H|]
g |\
a2a a2g | gff fga | bge bge | faf c2f |\
a2a a2g | gff f2e | dba gfe | fff "^D.C."f2 |]
c/B/ |\


